X: 22
T: Ata Be Libi
O: Israel
C: Egyptian
M: 4/4
L: 1/8
P:A2B2C2
K: Dm
Q:1/4 =180
%%MIDI program 6
P:A
z4 zG,A,B,      |A,8         |\
z4 zG,A,B,      |A,8         |\
zG,A,B, B,4 B,B,|B,4 CB,A,G, |\
A,4 z4          |
P:B
%%MIDI program 71
%%MIDI bassprog 24
%%MIDI chordprog 25
"Dm"z4 zFFE     |\
DF-F4z2         |zDF2FF2F    |\
FFED F2z2       |DED2F2z2    |
"Am"z2G2E4      |"Am"zEE2EEE2|\
zE2E2EE2        |E2D2^C2E2   |
z8              |E2E2D2D2    |\
^C2C2B,2B,2     |A,2A,4z2    |
P:C
"Dm"zDD2D2D2    |D2E2D2z2    |\
zDD2D2D2        |D2E2D2z2    |
"Am"zEE2E2E2    |E2F2E2z2    |\
zEE2E2E2        |E2F2D2z2    |


